korla/apps/scalable/dockstation.svg

<svg width="48" height="48" xmlns="http://www.w3.org/2000/svg">
 <circle cx="24" cy="25" r="20" opacity=".2"/>
 <path d="m44 24c-1 1-10.915145 2.679247-21.96084 2.679247s-17.03916-1.679247-18.03916-2.679247c0-11.045695 8.954305-20 20-20s20 8.954305 20 20z" fill="#b3e8ff"/>
 <path d="m24 4a20 20 0 0 0 -20 20 20 20 0 0 0 .0215.582 20 20 0 0 1 19.9785-19.582 20 20 0 0 1 19.979 19.418 20 20 0 0 0 .021-.418 20 20 0 0 0 -20-20z" fill="#fff" opacity=".2"/>
 <path d="m21.638672 20.003906c-4.526669.062562-10.162196.905763-16.4941408 2.476563-.6022504.149402-.8878449.218715-1.0820312.255859-.0341549.420459-.0549987.841894-.0625 1.263672.00206 11.012215 8.905847 19.950927 19.917969 19.996094.04508-.000058.06998.0022.115234.002 11.031982-.018315 19.965761-8.966097 19.966797-19.998094-.0078-.722715-.05472-1.444476-.140625-2.162109-1.939277.919309-3.689078 1.217467-5.639073 1.203144-5.167972-.040222-10.158235-2.755308-14.710536-3.015645-.600229-.02313-1.224427-.03042-1.871094-.02148z" fill="#29b6f6"/>
 <path d="m16 24a1 1 0 0 0-1 1 1 1 0 0 0 1 1 1 1 0 0 0 1-1 1 1 0 0 0-1-1zm18 4a3 3 0 0 0-3 3 3 3 0 0 0 3 3 3 3 0 0 0 3-3 3 3 0 0 0-3-3zm-11.5 12a1.5 1.5 0 0 0-1.5 1.5 1.5 1.5 0 0 0 1.5 1.5 1.5 1.5 0 0 0 1.5-1.5 1.5 1.5 0 0 0-1.5-1.5z" opacity=".2"/>
 <g fill="#b3e8ff">
  <circle cx="16" cy="24" r="1"/>
  <circle cx="34" cy="30" r="3"/>
  <circle cx="22.5" cy="40.5" r="1.5"/>
 </g>
 <path d="m21.638672 20.003906c-4.526669.062562-10.162196.905763-16.4941408 2.476563-.6022503.149402-.8878449.218715-1.0820312.255859-.0341549.420459-.0549987.841894-.0625 1.263672.0000418.223515.0083056.444267.015625.666016.0107057-.310153.0217459-.62034.046875-.929688.1941863-.037144.4797809-.106457 1.0820312-.255859 6.3319448-1.5708 11.9674718-2.414001 16.4941408-2.476563.646667-.00894 1.270865-.001645 1.871094.021485 4.552301.260337 9.542965 2.975405 14.710937 3.015625 1.949995.014323 3.699395-.283816 5.638672-1.203125.070271.587028.106975 1.176763.125 1.767578.006037-.201729.015606-.402284.015625-.605469-.0078-.722715-.05472-1.444476-.140625-2.162109-1.939277.919309-3.688677 1.217448-5.638672 1.203125-5.167972-.040222-10.158636-2.755288-14.710937-3.015625-.600229-.02313-1.224427-.030425-1.871094-.021485z" opacity=".1"/>
</svg>

<svg xmlns="http://www.w3.org/2000/svg" width="48" height="48" version="1.1">
 <circle style="opacity:0.2" cx="24" cy="25" r="20"/>
 <path style="fill:#b3e8ff" d="M 44,24 C 43,25 33.084855,26.679247 22.03916,26.679247 10.993465,26.679247 5,25 4,24 4,12.954305 12.954305,4 24,4 35.045695,4 44,12.954305 44,24 Z"/>
 <path style="opacity:0.2;fill:#ffffff" d="M 24,4 A 20,20 0 0 0 4,24 20,20 0 0 0 4.0215,24.582 20,20 0 0 1 24,5 20,20 0 0 1 43.979,24.418 20,20 0 0 0 44,24 20,20 0 0 0 24,4 Z"/>
 <path style="fill:#29b6f6" d="M 21.638672,20.003906 C 17.112003,20.066468 11.476476,20.909669 5.1445312,22.480469 4.5422808,22.629871 4.2566863,22.699184 4.0625,22.736328 4.0283451,23.156787 4.0075013,23.578222 4,24 c 0.00206,11.012215 8.905847,19.950927 19.917969,19.996094 0.04508,-5.8e-5 0.06998,0.0022 0.115234,0.002 C 35.065185,43.979779 43.998964,35.031997 44,24 43.9922,23.277285 43.94528,22.555524 43.859375,21.837891 41.920098,22.7572 40.170297,23.055358 38.220302,23.041035 33.05233,23.000813 28.062067,20.285727 23.509766,20.02539 22.909537,20.00226 22.285339,19.99497 21.638672,20.00391 Z"/>
 <path style="opacity:0.2" d="m 16,24 a 1,1 0 0 0 -1,1 1,1 0 0 0 1,1 1,1 0 0 0 1,-1 1,1 0 0 0 -1,-1 z m 18,4 a 3,3 0 0 0 -3,3 3,3 0 0 0 3,3 3,3 0 0 0 3,-3 3,3 0 0 0 -3,-3 z M 22.5,40 A 1.5,1.5 0 0 0 21,41.5 1.5,1.5 0 0 0 22.5,43 1.5,1.5 0 0 0 24,41.5 1.5,1.5 0 0 0 22.5,40 Z"/>
 <circle style="fill:#b3e8ff" cx="16" cy="24" r="1"/>
 <circle style="fill:#b3e8ff" cx="34" cy="30" r="3"/>
 <circle style="fill:#b3e8ff" cx="22.5" cy="40.5" r="1.5"/>
 <path style="opacity:0.1" d="M 21.638672 20.003906 C 17.112003 20.066468 11.476476 20.909669 5.1445312 22.480469 C 4.5422809 22.629871 4.2566863 22.699184 4.0625 22.736328 C 4.0283451 23.156787 4.0075013 23.578222 4 24 C 4.0000418 24.223515 4.0083056 24.444267 4.015625 24.666016 C 4.0263307 24.355863 4.0373709 24.045676 4.0625 23.736328 C 4.2566863 23.699184 4.5422809 23.629871 5.1445312 23.480469 C 11.476476 21.909669 17.112003 21.066468 21.638672 21.003906 C 22.285339 20.994966 22.909537 21.002261 23.509766 21.025391 C 28.062067 21.285728 33.052731 24.000796 38.220703 24.041016 C 40.170698 24.055339 41.920098 23.7572 43.859375 22.837891 C 43.929646 23.424919 43.96635 24.014654 43.984375 24.605469 C 43.990412 24.40374 43.999981 24.203185 44 24 C 43.9922 23.277285 43.94528 22.555524 43.859375 21.837891 C 41.920098 22.7572 40.170698 23.055339 38.220703 23.041016 C 33.052731 23.000794 28.062067 20.285728 23.509766 20.025391 C 22.909537 20.002261 22.285339 19.994966 21.638672 20.003906 z"/>
</svg>
